libs/ui/packages/crypto-icons/src/svg/DBC.svg

<svg width="24" height="24" viewBox="0 0 24 24" fill="none">
<path fill-rule="evenodd" clip-rule="evenodd" d="M10.3387 12.6961L9.10125 13.9891C8.8785 14.2216 8.66025 14.4563 8.43675 14.6873C8.39925 14.7263 8.346 14.7496 8.30025 14.7803C8.20275 14.7646 8.12775 14.7038 8.115 14.6153C8.09429 14.4806 8.07579 14.3456 8.0595 14.2103C8.037 14.0318 7.98225 13.9823 7.8015 13.9598C7.42875 13.9148 7.05675 13.8661 6.684 13.8173L5.8335 13.7071C5.664 13.6846 5.6025 13.5631 5.691 13.4183C5.895 13.0898 6.1005 12.7628 6.30525 12.4358L7.55775 10.4348C7.60725 10.3538 7.66275 10.2983 7.76925 10.3013C7.83675 10.3028 7.90725 10.2863 7.974 10.2691C8.0535 10.2496 8.11575 10.2736 8.17125 10.3261C8.2695 10.4183 8.36925 10.5098 8.46675 10.6028L9.59775 11.6761C9.8415 11.9071 10.0875 12.1366 10.3312 12.3676C10.4572 12.4861 10.4573 12.5716 10.3387 12.6961ZM18.6562 14.4353C18.7268 14.4938 18.8032 14.5493 18.8182 14.6491C18.837 14.7766 18.786 14.8688 18.678 14.9386C18.0405 15.3511 17.403 15.7658 16.7655 16.1791L15.5333 16.9778C15.4944 17.0024 15.4573 17.0297 15.4222 17.0596C15.3912 17.0851 15.3665 17.1175 15.3503 17.1542C15.334 17.1909 15.3265 17.2309 15.3285 17.2711C15.3345 17.4248 15.3435 17.5786 15.3458 17.7316C15.348 17.9078 15.2183 18.0181 15.0413 17.9978C14.9775 17.9894 14.9196 17.9563 14.88 17.9056C14.7318 17.7345 14.5838 17.5633 14.436 17.3918C14.2507 17.1773 14.0662 16.9613 13.8802 16.7476C13.8419 16.7093 13.8129 16.6628 13.7954 16.6116C13.7778 16.5603 13.7722 16.5058 13.779 16.4521L13.8045 15.5558C13.8075 15.4508 13.8698 15.3833 13.9537 15.3293L14.9722 14.6783C15.5422 14.3146 16.1138 13.9523 16.6823 13.5848C16.8022 13.5076 16.914 13.4843 17.046 13.5518C17.1435 13.6013 17.2537 13.6103 17.3595 13.5773C17.5177 13.5271 17.6392 13.5713 17.7615 13.6793C18.054 13.9373 18.3577 14.1833 18.657 14.4353H18.6562ZM13.1827 15.1793C13.229 15.2245 13.262 15.2816 13.278 15.3443C13.3057 15.4846 13.2502 15.5798 13.1182 15.6436C12.6795 15.8551 12.2415 16.0688 11.799 16.2736C11.7195 16.3096 11.6198 16.3141 11.529 16.3186C11.1623 16.3351 10.7955 16.3448 10.4288 16.3598C10.212 16.3681 9.996 16.3816 9.7965 16.3921H9.6495C9.61625 16.3929 9.58317 16.387 9.55224 16.3748C9.52132 16.3625 9.49318 16.3442 9.4695 16.3208C9.423 16.2781 9.375 16.2368 9.32925 16.1933C9.07125 15.9481 8.81775 15.6983 8.5545 15.4583C8.4075 15.3248 8.40525 15.1456 8.5455 15.0023C8.86125 14.6768 9.17325 14.3483 9.48675 14.0198C9.825 13.6658 10.1633 13.3103 10.5008 12.9548C10.5264 12.9247 10.5579 12.9001 10.5933 12.8826C10.6288 12.8651 10.6675 12.8551 10.707 12.8531C10.7465 12.8512 10.7859 12.8573 10.823 12.8712C10.86 12.8851 10.8938 12.9064 10.9222 12.9338L12.2723 14.2756C12.5753 14.5771 12.8812 14.8756 13.1827 15.1793ZM15.0413 9.14256C14.8965 8.91906 15.06 8.61007 15.3007 8.57032C15.9442 8.46307 16.5855 8.34007 17.2283 8.22832C17.37 8.20357 17.4825 8.26882 17.5605 8.38582C17.6955 8.58832 17.8282 8.79157 17.9618 8.99482C18.2437 9.42232 18.5265 9.84982 18.8055 10.2788C18.843 10.3366 18.8618 10.4063 18.8895 10.4701L18.873 10.4776C18.8684 10.5871 18.8278 10.692 18.7575 10.7761C18.3645 11.3041 17.967 11.8298 17.5748 12.3586C17.5377 12.4055 17.4898 12.4427 17.4352 12.4669C17.3806 12.4911 17.3209 12.5017 17.2612 12.4976C17.2016 12.4935 17.1439 12.475 17.0931 12.4436C17.0422 12.4122 16.9998 12.3688 16.9695 12.3173C16.3958 11.3648 15.816 10.4153 15.2385 9.46507C15.1733 9.35707 15.1095 9.24756 15.0413 9.14256ZM13.9125 11.7916L13.8 12.7928C13.7685 13.0703 13.7347 13.3463 13.7032 13.6238L13.5922 14.5988C13.5847 14.6671 13.584 14.7368 13.5697 14.8028C13.5623 14.8351 13.5382 14.8763 13.5112 14.8868C13.4842 14.8973 13.4362 14.8823 13.4122 14.8621C13.3057 14.7698 13.2045 14.6723 13.1025 14.5756C12.735 14.2276 12.3698 13.8788 12.0023 13.5323C11.6828 13.2301 11.3625 12.9301 11.0415 12.6301C10.935 12.5311 10.9342 12.4996 11.037 12.3923L12.5055 10.8548L13.5082 9.80182L14.0002 9.28432C14.0145 9.26932 14.0265 9.24907 14.0438 9.24307C14.079 9.23032 14.1225 9.21307 14.1532 9.22282C14.1788 9.23182 14.1908 9.27757 14.1982 9.29032L14.1232 9.95032L14.0265 10.7986L13.9125 11.7916ZM16.767 12.5566C16.815 12.6338 16.8225 12.7073 16.77 12.7876C16.7128 12.8776 16.6884 12.9846 16.701 13.0906C16.71 13.1851 16.671 13.2428 16.5907 13.2931C15.963 13.6913 15.3383 14.0926 14.7128 14.4931C14.5163 14.6191 14.3197 14.7443 14.1225 14.8688C14.0445 14.9183 13.9643 14.9146 13.9215 14.8516C13.8975 14.8171 13.8945 14.7691 13.8878 14.7451L13.9703 14.1391L14.154 12.8026L14.3565 11.3401L14.5538 9.90982L14.6287 9.37732C14.6302 9.36307 14.631 9.34657 14.6385 9.33607C14.658 9.31132 14.6798 9.27456 14.7045 9.27006C14.7315 9.26556 14.7735 9.28657 14.7908 9.30982C14.8365 9.37132 14.8733 9.43956 14.9137 9.50557L16.38 11.9176C16.509 12.1306 16.6365 12.3443 16.767 12.5558V12.5566ZM13.7272 8.87857C13.7505 8.89357 13.7955 8.90932 13.8195 8.94157C13.8563 8.99107 13.824 9.03756 13.7858 9.07731L13.2758 9.61356L11.7892 11.1691C11.4787 11.4953 11.1698 11.8231 10.8593 12.1486C10.7467 12.2656 10.6568 12.2656 10.5398 12.1546C10.1775 11.8111 9.81525 11.4661 9.45225 11.1233C9.09975 10.7903 8.74575 10.4581 8.39175 10.1258C8.3445 10.0808 8.307 10.0321 8.31225 9.96307C8.31975 9.86932 8.37375 9.81607 8.481 9.79807C8.67675 9.76282 8.87325 9.72831 9.06975 9.69456L10.956 9.36457L13.1835 8.97382L13.7272 8.87857ZM8.673 9.35257C9.0225 9.11332 9.372 8.87557 9.72225 8.63782L13.1047 6.33382C13.2172 6.25732 13.2885 6.27307 13.3447 6.39457C13.578 6.89407 13.8097 7.39432 14.0422 7.89457C14.0722 7.95907 14.1007 8.02432 14.1315 8.08957C14.1562 8.14207 14.1398 8.18482 14.1083 8.23207C14.0673 8.28998 14.0326 8.35208 14.0048 8.41732C13.98 8.47957 13.9425 8.51332 13.875 8.52532C13.377 8.61382 12.8798 8.70532 12.3825 8.79382L10.617 9.11106L8.6895 9.45756C8.6625 9.46206 8.63475 9.45756 8.607 9.45756L8.5905 9.42682C8.61825 9.40207 8.643 9.37357 8.673 9.35257ZM5.1555 10.4971C4.935 10.4926 4.80375 10.2781 4.9095 10.0808C4.99875 9.91432 5.09775 9.75382 5.19375 9.59107C5.46975 9.11932 5.74725 8.64907 6.02175 8.17732C6.06654 8.10028 6.13133 8.03679 6.20925 7.99357C6.94125 7.57282 7.67175 7.14982 8.40375 6.72832C8.45022 6.69988 8.5012 6.67959 8.5545 6.66832C8.60447 6.65845 8.65623 6.66342 8.7034 6.68261C8.75058 6.7018 8.79111 6.73437 8.82 6.77632C8.85195 6.8173 8.87136 6.86665 8.87589 6.91842C8.88041 6.97019 8.86986 7.02216 8.8455 7.06807C8.73525 7.30357 8.6205 7.53682 8.508 7.77082C8.298 8.19982 8.088 8.62806 7.88025 9.05782C7.86057 9.10531 7.82993 9.14748 7.79082 9.18085C7.75171 9.21422 7.70525 9.23786 7.65525 9.24982C7.56221 9.272 7.47712 9.31946 7.40935 9.38696C7.34159 9.45446 7.2938 9.53937 7.27125 9.63232C7.25986 9.67821 7.23661 9.72031 7.20384 9.7544C7.17107 9.78849 7.12991 9.81338 7.0845 9.82657C6.483 10.0381 5.88225 10.2541 5.2815 10.4678C5.241 10.4828 5.19825 10.4873 5.15625 10.4978L5.1555 10.4971ZM8.27025 9.12757C8.27323 9.09627 8.28187 9.06577 8.29575 9.03757L9.08175 7.31482C9.24525 6.95632 9.411 6.59857 9.57225 6.23932C9.60975 6.15682 9.6645 6.11557 9.7575 6.11182C10.0028 6.10432 10.248 6.09157 10.4932 6.08182L11.9407 6.02707C12.1102 6.01957 12.2805 6.00832 12.4507 6.00007C12.5722 5.99482 12.6555 6.06832 12.6562 6.18757C12.6615 6.26032 12.615 6.30757 12.555 6.34882L12.0915 6.66457L9.321 8.54932L8.436 9.15232C8.41536 9.16792 8.39326 9.18148 8.37 9.19282C8.3175 9.21532 8.26725 9.18382 8.27025 9.12757ZM7.248 10.3651C7.12575 10.5623 7.002 10.7581 6.879 10.9546C6.41925 11.6896 5.9595 12.4253 5.499 13.1596C5.48001 13.1947 5.45456 13.226 5.424 13.2518C5.3445 13.3088 5.23875 13.2691 5.20125 13.1693C5.14125 13.0088 5.08425 12.8468 5.0265 12.6856L4.52475 11.2741C4.51275 11.2388 4.5045 11.2028 4.5 11.1856C4.50075 11.0903 4.53225 11.0498 4.6215 11.0206C4.8885 10.9343 5.1555 10.8496 5.4225 10.7648L6.93375 10.2848L7.1325 10.2233C7.17975 10.2083 7.227 10.1881 7.266 10.2406C7.30125 10.2878 7.272 10.3268 7.248 10.3651ZM19.3365 12.3218L19.488 13.1888C19.4925 13.2166 19.4955 13.2451 19.5 13.2818C19.4925 13.3193 19.4842 13.3643 19.4722 13.4078L19.2735 14.1248C19.2165 14.3311 19.053 14.3798 18.888 14.2403C18.5498 13.9553 18.21 13.6703 17.8702 13.3868C17.793 13.3223 17.7607 13.2481 17.7787 13.1461C17.8008 13.0445 17.7886 12.9385 17.7443 12.8446C17.6978 12.7523 17.7128 12.6706 17.7735 12.5896C18.051 12.2176 18.3263 11.8441 18.603 11.4721L18.7717 11.2441C18.828 11.1668 18.9023 11.1293 18.9967 11.1503C19.0958 11.1728 19.1468 11.2403 19.1632 11.3371L19.3358 12.3218H19.3365ZM13.6635 6.36382L13.6485 6.33232C13.6283 6.28732 13.62 6.23482 13.6658 6.20932C13.7059 6.19131 13.7513 6.18865 13.7933 6.20182C13.8593 6.22207 13.9185 6.25957 13.9808 6.29032L16.5023 7.54957L16.95 7.77457C17.0002 7.79932 17.04 7.82857 17.0295 7.89157C17.019 7.95382 16.9718 7.96732 16.917 7.97707C16.311 8.08507 15.7058 8.19457 15.1005 8.30332L15.0413 8.31532C15.024 8.30407 14.991 8.29132 14.97 8.26732C14.9161 8.19949 14.8482 8.14408 14.7709 8.10487C14.6936 8.06565 14.6088 8.04355 14.5223 8.04007C14.4548 8.03707 14.4203 7.99732 14.3948 7.94107C14.2883 7.71007 14.1795 7.48057 14.0723 7.25032L13.6635 6.36382Z" fill="#5BC1D4"/>
</svg>

<svg width="24" height="24" viewBox="0 0 24 24" fill="none"><path fill="#5bc1d4" fill-rule="evenodd" d="M10.339 12.696 9.1 13.99c-.223.233-.44.467-.664.698-.038.04-.091.063-.137.093-.097-.015-.172-.076-.185-.165q-.031-.202-.056-.405c-.022-.178-.077-.228-.257-.25q-.559-.069-1.118-.143l-.85-.11c-.17-.022-.231-.144-.143-.289l.614-.982 1.253-2.001c.05-.081.105-.137.211-.134a.8.8 0 0 0 .205-.032c.08-.02.142.005.197.057l.296.277 1.13 1.073q.368.345.734.692c.126.118.126.204.008.328m8.317 1.74c.07.058.147.113.162.213.019.128-.032.22-.14.29l-1.913 1.24-1.232.799a1 1 0 0 0-.11.082.26.26 0 0 0-.095.211c.007.154.016.308.018.46.002.177-.128.287-.305.267a.25.25 0 0 1-.161-.092l-.444-.514-.556-.644a.35.35 0 0 1-.101-.296l.026-.896c.002-.105.065-.173.149-.227l1.018-.65q.857-.545 1.71-1.094c.12-.077.232-.1.364-.033.098.05.208.058.314.025.158-.05.28-.006.402.102.292.258.596.504.895.756m-5.473.743q.07.07.095.165c.028.14-.028.236-.16.3-.438.211-.876.425-1.319.63-.08.036-.18.04-.27.045-.367.016-.733.026-1.1.04-.217.01-.433.023-.633.033H9.65a.25.25 0 0 1-.18-.071q-.072-.063-.14-.128c-.259-.245-.512-.495-.775-.735-.147-.133-.15-.312-.01-.456q.473-.489.942-.982l1.014-1.065a.29.29 0 0 1 .421-.021l1.35 1.342c.303.301.61.6.91.903m1.858-6.036c-.145-.224.019-.533.26-.573.643-.107 1.284-.23 1.927-.342.142-.024.255.04.332.158q.202.304.402.609.424.64.843 1.284c.038.058.057.127.085.191l-.017.008a.5.5 0 0 1-.116.298c-.393.528-.79 1.054-1.182 1.583a.368.368 0 0 1-.605-.042c-.574-.952-1.154-1.902-1.731-2.852q-.098-.163-.198-.322m-1.129 2.649-.112 1-.097.832-.11.975c-.008.068-.009.138-.023.204-.008.032-.032.073-.059.084-.027.01-.075-.005-.099-.025q-.158-.14-.31-.286l-1.1-1.044-.96-.902c-.107-.099-.108-.13-.005-.238l1.468-1.537 1.003-1.053.492-.518c.014-.015.027-.035.044-.04.035-.014.079-.03.11-.021.025.009.037.055.044.067l-.075.66-.096.849zm2.855.765c.048.077.056.15.003.23a.46.46 0 0 0-.069.304c.009.094-.03.152-.11.202q-.941.599-1.878 1.2l-.59.376c-.079.05-.159.046-.201-.017-.024-.035-.027-.083-.034-.107l.082-.606.184-1.336.203-1.463.197-1.43.075-.533c.001-.014.002-.03.01-.04.019-.026.04-.062.066-.067.027-.004.069.017.086.04.045.061.082.13.123.196l1.466 2.412zm-3.04-3.678c.024.015.069.03.092.063.037.05.005.096-.033.135l-.51.537-1.487 1.555-.93.98c-.112.117-.202.117-.32.006q-.542-.517-1.087-1.032-.529-.5-1.06-.997c-.047-.045-.085-.094-.08-.163q.01-.14.169-.165.294-.053.589-.103l1.886-.33 2.228-.391zm-5.054.474q.524-.359 1.05-.715l3.382-2.304c.112-.077.184-.06.24.06l.697 1.5.09.196c.024.052.008.095-.024.142a1 1 0 0 0-.103.185c-.025.063-.062.096-.13.108l-1.492.269-1.766.317-1.928.347c-.027.004-.054 0-.082 0l-.016-.031c.027-.025.052-.053.082-.074m-3.517 1.144c-.221-.004-.352-.219-.246-.416.089-.167.188-.327.284-.49l.828-1.414a.5.5 0 0 1 .187-.183q1.098-.632 2.195-1.266a.5.5 0 0 1 .15-.06.26.26 0 0 1 .266.108.27.27 0 0 1 .025.292q-.167.353-.337.703-.316.643-.628 1.287a.33.33 0 0 1-.225.192.52.52 0 0 0-.384.382.27.27 0 0 1-.186.195q-.903.319-1.803.64c-.041.016-.084.02-.126.03m3.114-1.37a.3.3 0 0 1 .026-.09l.786-1.722q.247-.537.49-1.076c.038-.082.093-.123.186-.127q.367-.013.735-.03l1.448-.055c.17-.007.34-.019.51-.027.121-.005.204.068.205.188.005.072-.041.12-.101.16l-.463.317L9.32 8.549l-.885.603a.4.4 0 0 1-.066.04c-.052.023-.103-.008-.1-.064m-1.022 1.238-.369.59-1.38 2.205a.3.3 0 0 1-.075.092c-.08.057-.185.017-.223-.083q-.09-.24-.174-.483l-.502-1.412c-.012-.035-.02-.071-.025-.088 0-.096.032-.136.122-.165q.4-.13.8-.256l1.512-.48.199-.062c.047-.015.094-.035.133.018.035.047.006.086-.018.124m12.089 1.957.151.867c.005.028.008.056.012.093-.008.037-.016.082-.028.126l-.199.717c-.056.206-.22.255-.385.115l-1.018-.853c-.077-.065-.11-.139-.091-.24a.47.47 0 0 0-.035-.302c-.046-.093-.031-.174.03-.255l.829-1.118.169-.228c.056-.077.13-.115.225-.094.099.023.15.09.166.187l.173.985m-5.673-5.958-.015-.032c-.02-.045-.029-.097.017-.123a.18.18 0 0 1 .127-.007c.066.02.126.058.188.088l2.521 1.26.448.225c.05.024.09.054.08.117-.011.062-.058.075-.113.085l-1.817.326-.059.012c-.017-.01-.05-.024-.071-.048a.6.6 0 0 0-.448-.227c-.067-.003-.102-.043-.127-.099l-.323-.69z" clip-rule="evenodd"/></svg>
